svgs/duotone/arrow-left-to-line.svg

<svg xmlns="http://www.w3.org/2000/svg" viewBox="0 0 448 512"><!-- Font Awesome Pro 6.0.0-alpha2 by @fontawesome - https://fontawesome.com License - https://fontawesome.com/license (Commercial License) --><defs><style>.fa-secondary{opacity:.4}</style></defs><path d="M32 64C14.312 64 0 78.312 0 96V416C0 433.688 14.312 448 32 448S64 433.688 64 416V96C64 78.312 49.688 64 32 64Z" class="fa-secondary"/><path d="M310.625 150.625L237.25 224H416C433.688 224 448 238.312 448 256S433.688 288 416 288H237.25L310.625 361.375C316.875 367.625 320 375.812 320 384S316.875 400.375 310.625 406.625C298.125 419.125 277.875 419.125 265.375 406.625L137.375 278.625C124.875 266.125 124.875 245.875 137.375 233.375L265.375 105.375C277.875 92.875 298.125 92.875 310.625 105.375S323.125 138.125 310.625 150.625Z" class="fa-primary"/></svg>

<svg xmlns="http://www.w3.org/2000/svg" viewBox="0 0 448 512"><!--! Font Awesome Pro 6.3.0 by @fontawesome - https://fontawesome.com License - https://fontawesome.com/license (Commercial License) Copyright 2023 Fonticons, Inc. --><defs><style>.fa-secondary{opacity:.4}</style></defs><path class="fa-primary" d="M310.6 150.6L237.3 224H416c17.69 0 32 14.31 32 32s-14.31 32-32 32h-178.8l73.38 73.38C316.9 367.6 320 375.8 320 384s-3.125 16.38-9.375 22.62c-12.5 12.5-32.75 12.5-45.25 0l-128-128c-12.5-12.5-12.5-32.75 0-45.25l128-128c12.5-12.5 32.75-12.5 45.25 0S323.1 138.1 310.6 150.6z"/><path class="fa-secondary" d="M32 64C14.31 64 0 78.31 0 96v320c0 17.69 14.31 32 32 32s32-14.31 32-32V96C64 78.31 49.69 64 32 64z"/></svg>
